icon/io/play-forward-circle.svg

<svg xmlns="http://www.w3.org/2000/svg" width="512" height="512"><path d="M256 48C141.31 48 48 141.31 48 256s93.31 208 208 208 208-93.31 208-208S370.69 48 256 48Zm138.77 217.3-114.45 69.14a10.78 10.78 0 0 1-16.32-9.31v-53.32l-103.68 62.63a10.78 10.78 0 0 1-16.32-9.31V186.87a10.78 10.78 0 0 1 16.32-9.31L264 240.19v-53.32a10.78 10.78 0 0 1 16.32-9.31l114.45 69.14a10.89 10.89 0 0 1 0 18.6Z"/></svg>

<svg xmlns="http://www.w3.org/2000/svg" viewBox="0 0 512 512" height="1em" width="1em">
  <path d="M256,48C141.31,48,48,141.31,48,256s93.31,208,208,208,208-93.31,208-208S370.69,48,256,48ZM394.77,265.3,280.32,334.44A10.78,10.78,0,0,1,264,325.13V271.81L160.32,334.44A10.78,10.78,0,0,1,144,325.13V186.87a10.78,10.78,0,0,1,16.32-9.31L264,240.19V186.87a10.78,10.78,0,0,1,16.32-9.31L394.77,246.7A10.89,10.89,0,0,1,394.77,265.3Z"/>
</svg>
